X:3337
T:Knockfierna
O:england
B:Joyce, P. W.; "Old Irish Folk Music and Songs"
R:song air
H:  Taken down about 1851 from the singing of Joe Martin of Kilfinane Co.
H:Limerick.  Knockfierna, a well known fairy hill rising from the great
H:Limerick plain, on the summit of which the fairy king Donn Fierna has
H:his palace.
L:1/8
M:3/4
K:F
A=Bc|d2 cAGE|D2 D2 DE|F2 E2 E>D|D2 C2 AG|
A2 d2 d>e|f2 edce|d2 AGA=B|c4 AG|
A2 d2 de|f2 edce|d>cAGFG|A=Bcdec|
d2 A2 AG|A=BcBAG|F2 EDC>E|D4||


